X:1
T:He’ll Never Forget to Keep Me
T:He’ll Never Forget to Keep Me
T:Frederick Arthur Graves
T:Frederick Arthur Graves, 1899
T:Public Domain Courtesy of the Cyber Hymnal™
T:Public Domain Courtesy of the Cyber Hymnal™
C:Frederick Arthur Graves
Z:Public Domain
Z:Courtesy of the Cyber Hymnal™
%%score ( 1 2 ) ( 3 4 )
L:1/8
M:3/4
K:D
V:1 treble 
V:2 treble 
V:3 bass 
V:4 bass 
V:1
"^Tenor & Alto Duet" F2 | F3 G F2 | D2 E2 F2 | G6 | F2 z2 (DD) | E E3 z E | D3 D G2 | F6- | %8
w: 1.~My|Fa- ther has|man- y dear|child-|ren; Will~He *|ev- er for-|get to keep|me?|
w: 2.~Our|Fa- ther re-|mem- bers the|spar-|rows, Their *|val- ue and|fall doth He|see;|
w: 3.~The|words of the|Lord are so|price-|less, How *|pa- tient and|watch- ful is|He;|
w: 4.~I|now will a-|bide in His|sha-|dow, Never *|rest- less nor|fear- ful will|be;|
w: 5.~O|bro- ther, why|don’t you ac-|cept|Him? He *|of- fers sal-|va- tion so|free;|
 F2 z2 F2 | F3 G F2 | D2 E2 F2 | G6 F2 z2 DD | E D3 z E | F3 D E2 | D6- | D2 z2 x2 || %16
w: * He|gave His own|Son to re-|deem them, And He|can- not for-|get to keep|me.||
w: * But|dear- er to|Him are His|child- ren, And He’ll|nev- er for-|get to keep|me.||
w: * Though|mo- ther for-|get her own|off- spring, Yet He’ll|nev- er for-|get to keep|me.||
w: * In~the|sec- ret of~His|pre- sence He’ll|hide me, And He’ll|nev- er for-|get to keep|me.||
w: * Re-|pent and be-|lieve and o-|bey Him, And He’ll|nev- er for-|get to keep|thee.||
"^Refrain" [FA]2 x2 | [FA] [FA]3 [FA]2 | [DF]3 [FA] [Fd]2 | [Gd]6- | [Gd]2 z2 [Gd]2 | %21
w: He’ll|nev- er for-|get to keep|me~(keep~me),|* He’ll|
w: He’ll|nev- er for-|get to keep|me~(keep~me),|* He’ll|
w: He’ll|nev- er for-|get to keep|me~(keep~me),|* He’ll|
w: He’ll|nev- er for-|get to keep|me~(keep~me),|* He’ll|
w: He’ll|nev- er for-|get to keep|thee~(keep~thee),|* He’ll|
 [Fd] [FA]3 [DF]2 | [FA]3 D [DF]2 | [CE]4 [DF]2 | [EG]4 [GA]2 | [FA]3 [CA] [DA]2 | %26
w: nev- er for-|get to keep|me (keep|me), He|gave His own|
w: nev- er for-|get to keep|me (keep|me), But|dear- er to|
w: nev- er for-|get to keep|me (keep|me), Though|mo- ther for-|
w: nev- er for-|get to keep|me (keep|me), In~the|sec- ret of~His|
w: nev- er for-|get to keep|thee (keep|thee), Re-|pent and be-|
 [DF]2 [FA]2 [Fd]2 | [Gd]6 | [GB]4 [Gd][Ed] | [Fd] [DA]3 [DF]2 | [CA]3 [CE] [CF]2 | [A,D]6- | %32
w: Son to re-|deem|me, And He’ll|nev- er for-|get to keep|me.|
w: Him are His|child-|ren, And He’ll|nev- er for-|get to keep|me.|
w: get her own|off-|spring, Yet He’ll|nev- er for-|get to keep|me.|
w: pre- sence He’ll|hide|me, And He’ll|nev- er for-|get to keep|me.|
w: lieve and o-|bey|Him, And He’ll|nev- er for-|get to keep|thee.|
 [A,D]2 z2 x2 |] x4 |] %34
w: ||
w: ||
w: ||
w: ||
w: ||
V:2
 x2 | x6 | x6 | x6 | x6 | x6 | x6 | x6 | x6 | x6 | x6 | x12 | x6 | x6 | x6 | x6 || x4 | x6 | x6 | %19
 x6 | x6 | x6 | x3 D x2 | x6 | x6 | x6 | x6 | x6 | x6 | x6 | x6 | x6 | x6 |] x4 |] %34
V:3
 [D,A,]2 | A,3 B, A,2 | F,2 G,2 A,2 | [D,B,]6 | [D,A,]2 z2 F,F, | G, G,3 z G, | F,3 F, B,2 | %7
 [D,A,]6- | [D,A,]2 z2 [D,A,]2 | A,3 B, A,2 | F,2 G,2 A,2 | [D,B,]6 x6 | [D,A,]2 z2 F,F, | %13
 G, F,3 z G, | A,3 F, G,2 | [D,F,]6- || [D,F,]2 z2 | [D,D]2 x4 | [D,D] [D,D]3 [D,D]2 | %19
 [D,A,]3 [D,A,] [D,A,]2 | [G,B,]4 [G,B,]2 | [G,B,]2 z2 [G,B,]2 | [D,A,] [D,D]3 [D,A,]2 | %23
 [D,D]3 [D,F,] [D,A,]2 | [A,,A,]6- | [A,,A,]4 [A,,C]2 | [D,D]3 [E,A,] [F,A,]2 | %27
 [D,A,]2 [D,D]2 [D,=C]2 | [G,B,]6 | [G,D]4 [G,B,][G,B,] | A, [A,,F,]3 [A,,F,]2 | %31
 [A,,E,]3 [A,,G,] [A,,A,]2 | [D,F,]6- |] [D,F,]2 z2 |] %34
V:4
 x2 | D,6 | D,6 | x6 | x4 D,2 | A,,6 | A,,6 | x6 | x6 | D,6 | D,6 | x12 | x4 D,2 | A,,6 | A,,6 | %15
 x6 || x4 | x6 | x6 | x6 | x6 | x6 | x6 | x6 | x6 | x6 | x6 | x6 | x6 | x6 | A, x5 | x6 | x6 |] %33
 x4 |] %34

